X:51
%%etbk:tnset id:17,pos:3,rep:3x,ant:
%%etbk:wsite http://www.thesession.org/tunes/display/73
%%etbk:color #ffccbf
%%etbk:pldat 2016-09-06T17:21,2016-03-17T17:41,2016-02-08T19:28,2015-11-25T16:20,2015-10-12T18:35,2015-10-07T17:34,2015-08-18T17:44,2015-01-26T19:25,2015-01-25T16:34,2014-12-29T17:33,2014-11-10T18:43,2014-09-11T19:31,2014-06-15T13:54,2014-04-28T18:28,2014-04-06T15:15,2014-03-22T16:41,2014-03-21T16:35,2014-02-26T18:43,2014-02-12T19:29,2014-02-05T17:33,2014-02-04T18:20,2013-11-23T15:59,2013-11-09T14:59,2013-11-04T18:18,2013-05-21T17:26,2013-05-07T19:16
T: Musical Priest, The
Z: Piano Box Version by Martin Fleischmann
H: Created 2013-02-19 /  Last Modified 2014-01-01
M: 4/4
L: 1/8
R: reel
K: Bmin
| !3!B3A !3!BcdB | !4!c!1!FcB !2!ABc!2!A | !1!F!3!B!2!B!3!B !3!BcdB | !4!cBAc !3!B2BA |
| !1!F!3!B!2!B!3!B !3!BcdB | !4!c2cB !2!ABc!2!A | !1!F!3!B!3!B!2!B !3!BcdB | !4!cBAc !3!B2!3!B!4!c|
|:!5!d2!3!dc !3!d!5!fed | !2!c!1!A!4!eA !5!fA!4!eA | !3!d!2!c!1!B!2!c !1!d!2!e!3!f!5!b | !4!a!3!f!1!e!3!c !2!B2:|
| !5!b!1!B!3!fB !5!bBf!1!B | !3!cBAc !5!ecBA | !5!b!1!B!3!fB !5!bBfB | !4!cBAB !3!c!1!B !3!(3B!2!B!1!B |
!5!bB!3!fB !5!bBfB | !3!cBAc !5!ecBA |  !2!Bcd!3!c !1!defg | !5!a!3!f!1!e!3!c !4!d!2!BBA|


